X:265
T: Music Club
T: Ceolchumann
S: "Ceol Rince na hEireann" 1/166
Z: B.Black
L: 1/8
M: 4/4
R: reel
K: D
d2 fA d2 fA|d2 fe dB B2|dBAF ABdf|afdf edBc|
d2 fA d2 fA|d2 fe dB B2|dBAF A2 dB|AGFE FD D2 :|
fa a2 afdf|gfed cdef|g2 gf gbag|f2 af egfe|
dB B2 AF F2|DF F2 ABdf|afef dBAF|A2 ag fd d2 :|
